X:19
T:Callipyge (E. Elsener) "Cafe Waltz "
M:3/4
L:1/4
R:Waltz
K:G
B2G|EFG|AGF|DEF|GFG|A^GA|B^AB|A2G|
B2G|EFG|AGF|DEF|GFG|A^GA|B_BA|G3:|
|:D2F|EcB|Adc|B2G|D2F|EcB|AGF|1G3:|2G2A||
L:1/8
|:BG EG BG|BG EG BG|cA FD FA|cA FD FA|
BG EG BG|BG EG BG|cA FD FA|1G4A2:|2G6|]
<end>
<start>
